projects/vfh1/img/icons/schedule-2.svg

<svg viewBox="0 0 58 59" fill="none" xmlns="http://www.w3.org/2000/svg">
<path d="M44.8416 32.2808C44.6876 32.2808 44.5351 32.3108 44.3928 32.369C44.2506 32.4273 44.1214 32.5127 44.0128 32.6203C43.9041 32.7279 43.8181 32.8557 43.7597 32.9961C43.7012 33.1366 43.6715 33.2871 43.6722 33.4389V56.6837H2.3388V2.30566H32.6988V12.4667C32.6988 12.7724 32.822 13.0656 33.0413 13.2818C33.2606 13.498 33.558 13.6194 33.8682 13.6194H37.5149C37.825 13.6194 38.1225 13.498 38.3418 13.2818C38.5611 13.0656 38.6843 12.7724 38.6843 12.4667C38.6843 12.161 38.5611 11.8678 38.3418 11.6517C38.1225 11.4355 37.825 11.314 37.5149 11.314H35.0209V4.02649L40.1474 9.28729C40.2537 9.39705 40.3808 9.48511 40.5216 9.54644C40.6624 9.60776 40.8141 9.64115 40.9679 9.6447C41.1218 9.64825 41.2749 9.6219 41.4184 9.56713C41.562 9.51237 41.6932 9.43027 41.8045 9.32553C41.9159 9.22079 42.0052 9.09546 42.0674 8.95668C42.1296 8.81791 42.1635 8.66842 42.1671 8.51674C42.1707 8.36507 42.144 8.21418 42.0884 8.07269C42.0329 7.9312 41.9496 7.80188 41.8433 7.69212L34.6995 0.355393L34.572 0.246135L34.511 0.202431C34.464 0.165712 34.4139 0.132827 34.3614 0.104098C34.2016 0.0318094 34.0273 -0.00368577 33.8515 0.000302491H1.15278C0.845984 0.00600628 0.553624 0.129791 0.338205 0.345193C0.122787 0.560594 0.00140599 0.850519 1.31338e-05 1.15298V57.8364C-0.000716392 57.9885 0.0289524 58.1392 0.0873256 58.28C0.145699 58.4208 0.231633 58.5489 0.340222 58.6569C0.448811 58.765 0.577927 58.8509 0.720199 58.9098C0.862472 58.9686 1.01511 58.9993 1.16941 59H44.8416C44.9952 58.9986 45.147 58.9673 45.2883 58.9081C45.4296 58.8488 45.5577 58.7627 45.6653 58.6547C45.7728 58.5466 45.8578 58.4188 45.9152 58.2783C45.9726 58.1379 46.0014 57.9878 45.9999 57.8364V33.4389C46.0014 33.1342 45.8804 32.8412 45.6633 32.6242C45.4463 32.4071 45.1508 32.2837 44.8416 32.2808Z" fill="#42474D"/>
<path d="M11.4895 16C11.2409 15.9951 11.001 15.9083 10.8075 15.7531L8.43365 13.9254C8.3177 13.8364 8.22053 13.7256 8.14768 13.5994C8.07484 13.4731 8.02774 13.3338 8.00909 13.1894C7.97141 12.8979 8.05186 12.6034 8.23274 12.3708C8.32231 12.2556 8.43383 12.159 8.56095 12.0867C8.68806 12.0143 8.82828 11.9675 8.9736 11.949C9.26708 11.9116 9.56351 11.9915 9.79768 12.1712L11.3573 13.3739L15.0582 9.36128C15.258 9.14398 15.5365 9.01443 15.8325 9.00113C16.1284 8.98784 16.4176 9.09188 16.6363 9.29038C16.8551 9.48887 16.9855 9.76556 16.9989 10.0596C17.0122 10.3536 16.9075 10.6408 16.7077 10.8581L12.3143 15.6218C12.2105 15.7381 12.0837 15.8317 11.9418 15.8968C11.7998 15.9618 11.6458 15.997 11.4895 16Z" fill="#42474D"/>
<path d="M58 15.2998C57.9988 14.9968 57.8751 14.7065 57.6557 14.4921L53.4796 10.4157L49.3036 6.33936C49.1946 6.23185 49.0649 6.1465 48.9219 6.08825C48.7789 6.02999 48.6255 6 48.4706 6C48.3156 6 48.1623 6.02999 48.0193 6.08825C47.8763 6.1465 47.7466 6.23185 47.6376 6.33936L23.9973 29.4532L23.9529 29.5074L23.864 29.605C23.8416 29.6399 23.8212 29.6761 23.8029 29.7134C23.7859 29.7325 23.7727 29.7545 23.7641 29.7784L19.116 39.5899L16.1283 45.3358C16.0375 45.5094 15.9935 45.7028 16.0008 45.8976C16.008 46.0924 16.0661 46.2822 16.1696 46.4489C16.2731 46.6156 16.4185 46.7538 16.592 46.8502C16.7656 46.9467 16.9615 46.9982 17.1612 47C17.3407 47.0015 17.5179 46.9606 17.6777 46.8807L23.6586 44.024L25.4911 43.1729C25.5897 43.1429 25.6832 43.0991 25.7688 43.0428L33.6545 39.4218C33.6939 39.4044 33.7312 39.3826 33.7655 39.3568H33.8044C33.8663 39.3173 33.9239 39.2719 33.9765 39.2213L34.0376 39.1616L57.6279 16.1345C57.7449 16.0275 57.8383 15.8982 57.9023 15.7547C57.9662 15.6111 57.9995 15.4563 58 15.2998ZM48.4761 8.79494L50.9918 11.2505L29.0008 32.7056L26.4852 30.25L48.4761 8.79494ZM25.3801 40.7011L22.4924 37.8878L25.1857 32.2069L31.1666 38.045L25.3801 40.7011ZM21.204 40.5981L21.4206 40.1374L23.0866 41.7636L22.609 41.9858L19.7713 43.341L21.204 40.5981ZM33.1769 36.7657L30.6557 34.3318L52.6522 12.8659L55.1678 15.3214L33.1769 36.7657Z" fill="#42474D"/>
<path d="M16.8026 28H10.1973C9.87979 28 9.57524 27.874 9.3507 27.6497C9.12615 27.4255 9 27.1213 9 26.8041V20.1958C9.00149 19.8791 9.12812 19.5758 9.35234 19.3519C9.57657 19.128 9.88025 19.0015 10.1973 19H16.8026C17.1202 19 17.4247 19.126 17.6493 19.3503C17.8738 19.5745 18 19.8787 18 20.1958V26.8041C18.0007 26.9614 17.9703 27.1172 17.9104 27.2627C17.8505 27.4081 17.7623 27.5402 17.651 27.6514C17.5396 27.7626 17.4073 27.8507 17.2617 27.9105C17.1161 27.9703 16.9601 28.0007 16.8026 28ZM11.3834 25.6026H15.6053V21.3974H11.3834V25.6026Z" fill="#42474D"/>
<path d="M16.8026 40H10.1973C9.87979 40 9.57524 39.874 9.3507 39.6497C9.12615 39.4255 9 39.1213 9 38.8041V32.1958C9.00149 31.8791 9.12812 31.5758 9.35234 31.3519C9.57657 31.128 9.88025 31.0015 10.1973 31H16.8026C17.1202 31 17.4247 31.126 17.6493 31.3503C17.8738 31.5745 18 31.8787 18 32.1958V38.8041C18.0007 38.9614 17.9703 39.1172 17.9104 39.2627C17.8505 39.4081 17.7623 39.5402 17.651 39.6514C17.5396 39.7626 17.4073 39.8507 17.2617 39.9105C17.1161 39.9703 16.9601 40.0007 16.8026 40ZM11.3834 37.6083H15.6053V33.4087H11.3834V37.6083Z" fill="#42474D"/>
<path d="M16.8025 52H10.1973C9.87978 52 9.57523 51.8738 9.35069 51.6491C9.12615 51.4244 9 51.1196 9 50.8019V44.1981C9.00149 43.8808 9.12812 43.5769 9.35234 43.3526C9.57656 43.1282 9.88024 43.0015 10.1973 43H15.3044C15.622 43 15.9265 43.1262 16.151 43.3509C16.3756 43.5756 16.5017 43.8803 16.5017 44.1981C16.5017 44.5159 16.3756 44.8206 16.151 45.0453C15.9265 45.27 15.622 45.3962 15.3044 45.3962H11.3833V49.6208H15.6222C15.6726 49.3229 15.8338 49.055 16.0733 48.8709C16.3128 48.6868 16.6129 48.6001 16.9136 48.6281C17.2143 48.6561 17.4934 48.7968 17.6948 49.0219C17.8962 49.2471 18.0052 49.5401 17.9998 49.8423V50.8189C17.9968 51.1342 17.8692 51.4354 17.6448 51.6568C17.4204 51.8781 17.1176 52.0015 16.8025 52Z" fill="#42474D"/>
</svg>

<svg viewBox="0 0 58 59" fill="none" xmlns="http://www.w3.org/2000/svg"><path d="M44.842 32.28a1.186 1.186 0 00-.83.34 1.15 1.15 0 00-.34.819v23.245H2.34V2.306H32.7v10.16c0 .306.123.6.342.816.22.216.517.337.827.337h3.647c.31 0 .608-.121.827-.337a1.145 1.145 0 000-1.63 1.178 1.178 0 00-.827-.338H35.02V4.026l5.126 5.261a1.173 1.173 0 00.82.358 1.187 1.187 0 00.837-.32 1.154 1.154 0 00.363-.808 1.14 1.14 0 00-.324-.825L34.7.355l-.127-.109-.061-.044a1.103 1.103 0 00-.15-.098 1.173 1.173 0 00-.51-.104H1.154C.846.006.553.13.338.345A1.15 1.15 0 000 1.153v56.683a1.144 1.144 0 00.34.82 1.176 1.176 0 00.83.344h43.672a1.184 1.184 0 00.823-.345 1.152 1.152 0 00.335-.819V33.44a1.144 1.144 0 00-.337-.815 1.177 1.177 0 00-.821-.343z" fill="#42474D"/><path d="M11.49 16a1.125 1.125 0 01-.683-.247l-2.373-1.828a1.112 1.112 0 01-.425-.736 1.103 1.103 0 01.552-1.102 1.12 1.12 0 011.237.084l1.56 1.203 3.7-4.013a1.12 1.12 0 011.94.699 1.1 1.1 0 01-.29.798l-4.394 4.764a1.132 1.132 0 01-.825.378zM58 15.3a1.135 1.135 0 00-.344-.808l-4.176-4.076-4.176-4.077A1.174 1.174 0 0048.47 6a1.196 1.196 0 00-.833.34l-23.64 23.113-.045.054-.089.098a1.087 1.087 0 00-.061.108.2.2 0 00-.039.065l-4.648 9.812-2.988 5.746a1.121 1.121 0 00.042 1.113c.103.167.248.305.422.401.174.097.37.148.57.15.179.002.356-.04.516-.12l5.98-2.856 1.833-.851c.099-.03.192-.074.278-.13l7.886-3.621a.563.563 0 00.11-.065h.04c.061-.04.119-.085.172-.136l.06-.06 23.59-23.027A1.15 1.15 0 0058 15.3zm-9.524-6.505l2.516 2.456L29 32.706l-2.516-2.456L48.476 8.795zM25.38 40.7l-2.888-2.813 2.694-5.681 5.98 5.838L25.38 40.7zm-4.176-.103l.217-.46 1.666 1.626-.478.222-2.838 1.355 1.433-2.743zm11.973-3.832l-2.521-2.434 21.996-21.466 2.516 2.455-21.991 21.445zM16.803 28h-6.606A1.198 1.198 0 019 26.804v-6.608A1.2 1.2 0 0110.197 19h6.606A1.198 1.198 0 0118 20.196v6.608A1.19 1.19 0 0116.803 28zm-5.42-2.397h4.222v-4.206h-4.222v4.206zM16.803 40h-6.606A1.198 1.198 0 019 38.804v-6.608A1.2 1.2 0 0110.197 31h6.606A1.198 1.198 0 0118 32.196v6.608A1.19 1.19 0 0116.803 40zm-5.42-2.392h4.222v-4.2h-4.222v4.2z" fill="#42474D"/><path d="M16.802 52h-6.605A1.197 1.197 0 019 50.802v-6.604A1.204 1.204 0 0110.197 43h5.107a1.197 1.197 0 01.847 2.045 1.195 1.195 0 01-.847.351h-3.92v4.225h4.238a1.198 1.198 0 012.378.221v.977A1.193 1.193 0 0116.802 52z" fill="#42474D"/></svg>
